!!!!SEGMENT: pl-wtm--r-2114--003_wysocki-kasper-napoleon--piano-piece-n-3.krn
!!!cenid: 18xx:4361
!!!COM: Wysocki, Kasper Napoleon
!!!COM-rismID: pe41024789
!!!CDT: 1810/12/06-1850/09/21
!!!CNT: Polish
!!!GTL: [Piano piece]
!!!OTL: N. 3.
!!!OMV: 003
!!!PDT:
!!!AGN: Secular
!!!SMS-siglum: PL-Wtm
!!!SMS-shelfmark: R 2114
!!!SMS-shelfwork: 001-003 G
!!!SMS-variant:
!!!SMS-altvar:
!!!NIFC-rismSourceID: 1001130432
!!!NIFC-rismChildID: 1001130438
!!!NIFC-islandoraID: pl-wtm:29820
!!!URL-pdf-islandora: https://repozytorium.nifc.pl/islandora/object/pl-wtm:29820/datastream/PDF/view
!!!URL-scan: https://polish.musicsources.pl/pl/lokalizacje/galeria/rekopisy/6548/4 @EN{Scan on Polish Music Sources Website} @PL{Skany w portalu Dziedzictwo Muzyki Polskiej w otwartym dostępie}
!!!ONB-nifc: UWAGA: skan 4.
!!!AIN: 2 piano
!!!key: d
!!!OMD: N. 3.
**kern	**kern
*part2	*part1
*staff2	*staff1
*I"fortepian	*I"fortepian
*Ipiano	*Ipiano
*ICklav	*ICklav
*clefF4	*clefG2
*k[b-]	*k[b-]
*d:	*d:
*M3/4	*M3/4
=1	=1
*	*^
4D 4AA 4DD\	8.A/L	4A< 4F</
.	16A/Jk	.
4r	4d/	2ryy
4C#X 4AA 4CC#X\	4e 4A< 4G</	.
=2	=2	=2
4D 4AA 4DD\	2f/	4A< 4F</
4D 4AA 4DD\	.	4A< 4F</
4D 4AA 4DD\	4r	4A< 4F</
=3	=3	=3
!	!LO:TUP:a:problem:klamra łukowa	!
4D 4AA 4DD\	12A</L	2ryy
.	12G#X</	.
.	12A</J	.
4r	4.f/	.
4C#X 4AA 4CC#X\	.	4A< 4G#</
.	8e/	.
=4	=4	=4
4D 4AA 4DD\	2d/	4A< 4F</
4D 4AA 4DD\	.	4A< 4F</
4D 4AA 4DD\	4r	4A< 4F</
*	*v	*v
=5	=5
4AAA/	8.e/L
.	16c#X/Jk
4E 4C#X 4AA\	4.A</
4E 4C# 4AA\	.
.	8G</
!!LO:LB:g=:original
=6	=6
*^	*
*2\right	*	*
2.DD\	4ryy	8F</L
.	.	8A</
.	4F 4AA\	8d/
.	.	8e/J
.	.	16qqd/LL
.	.	16qqe/JJ
.	4F 4AA\	4f/
*v	*v	*
=7	=7
4AAA/	8.e/L
.	16c#X/Jk
4E 4C#X 4AA\	4.A</
4E 4C# 4AA\	.
.	8G</
=8	=8
4DD\	8F</L
.	8A</J
.	8qA</
4F 4D 4AA 4FF\	4.d/
4D 4C 4AA 4FF#X\	.
.	8c/
=9	=9
2.G 2.D 2.BB- 2.GG/	8.B-/L
.	16B-/Jk
.	4B-/
.	4B-/
!!LO:LB:g=:original
=10	=10
2F: 2D: 2AA:\	2A/
4r	4r
=11	=11
!	!LO:TUP:b:problem:klamra łukowa
4AAA/	12A/L
.	12c#X/
.	12e/J
4E 4C#X 4AA\	4.a 4A</
4E\	.
.	8c# 8G</
=12	=12
*	*^
4D 4AA 4DD\	2.d/	4A< 4F</
4D 4AA 4DD\	.	4A< 4F</
4D 4AA 4DD\	.	4A< 4F</
*	*v	*v
==	==
*-	*-
!!!system-decoration: {(*)}
!!!RDF**kern: < = below
!!!ENC: Filip Voros
!!!END: 2023-07-11
!!!ENC: Marta Lawrence
!!!END: 2023-07-18
!!!YEC: Copyright 2022 Narodowy Instytut Fryderyka Chopina (https://polishscores.org)
!!!YEM: License CC-BY-4.0 (https://creativecommons.org/licenses/by/4.0)
